X:1
T:Napa, CMD
T:Napa, CMD
T:N. T. De Norlawn, 1899
T:Public Domain Courtesy of the Cyber Hymnal™
C:N. T. De Norlawn, 1899
Z:Public Domain
Z:Courtesy of the Cyber Hymnal™
%%score ( 1 2 ) ( 3 4 )
L:1/8
Q:1/4=95
M:6/8
K:Bb
V:1 treble 
V:2 treble 
V:3 bass 
V:4 bass 
V:1
 [DF] | ([DF][B,D])[CE] ([DF][Fd])[Ec] | ([DB][B,D])[EG] [DF]2 [DB] | [EA]2 [Ec] [EG]2 [EA] | %4
 [DB]3- [DB]2 [DF] | ([DF][B,D])[CE] ([DF][Fd])[Ec] | ([DB][B,D])[EG] [DF]2 [DB] | %7
 (AG)[CA] [=Ec]2 E | [A,F]3- [A,F]2 [EF] | (AG)[EA] ([DB][CA])[DB] | [Ec]2 [DB] [CA]2 [EF] | %11
 ([DB][FA])[FB] [Gc]2 [G^c] | [^Fd]3- [Fd]2 [Fd] | [Fe]2 [Fd] [Ec]2 [Gc] | [Fd]2 [Ec] [DB]2 [FB] | %15
 [Gc]2 [GB] ([FA][EG])[EA] | [DB]3- [DB]2 |] %17
V:2
 x | x6 | x6 | x6 | x6 | x6 | x6 | C2 x2 (C/B,/) x | x6 | E2 x4 | x6 | x6 | x6 | x6 | x6 | x6 | %16
 x5 |] %17
V:3
 [B,,B,] | (B,F,)[B,,B,] [B,,B,]2 [B,,B,] | [B,,B,]2 [B,,B,] [B,,B,]2 [B,,F,] | %3
 F,2 [F,A,] [F,C]2 F, | [B,,F,]3- [B,,F,]2 [B,,B,] | (B,F,)[B,,B,] [B,,B,]2 [B,,B,] | %6
 [B,,B,]2 [B,,B,] [B,,B,]2 [B,,F,] | (F,=E,)[C,F,] [C,G,]2 [C,G,] | F,3- F,2 F, | F,2 F, F,2 F, | %10
 F,2 F, F,2 F, | F,2 [D,B,] [E,B,]2 [E,G,] | [D,A,]3- [D,A,]2 [D,A,] | %13
 [C,A,]2 [D,B,] [E,G,]2 [E,B,] | [F,B,]2 [F,A,] [G,B,]2 [D,B,] | [E,B,]2 [=E,C] [F,C]2 F, | %16
 [B,,F,]3- [B,,F,]2 |] %17
V:4
 x | B,,2 x4 | x6 | F,2 x F, x2 | x6 | B,,2 x4 | x6 | C,2 x4 | F,3- F,2 F, | F,2 F, F,2 F, | %10
 F,2 F, F,2 F, | (B,,C,) x4 | x6 | x6 | x6 | x5 F, | x5 |] %17

